X: 03038
T: GUNPOWDER REEL
C: Bob McQuillen 20 Feb 77
B: Bob's Note Book 03 #38
R: reel
%D:1977
Z: 2020 John Chambers <jc:trillian.mit.edu>
M: C
L: 1/8
K: Em
GE \
| B,EEF GEGA | BEED EFGA | Bcde dBAG | FGAB A2GE |
| B,EEF GEGA | BEED EFGA | Bcde dBAB | G2E2 E2  :|
|: GA \
| Bded edBA | BEED E2GA | Bdef gbag | f2d2 d2ga |
| bagb agfa | gfeg f2ga | bagf edBA | Beed e2  :|
%%begintext align
%% Have you ever been to one of Ralph Sweet's
%% dances at Powder Mill Barn in Hazardville,
%% Ct.? DYNAMITE!! (Such beautiful music, by
%% Fifer's Delight, of course!)
%%endtext

%%sep 1 1 500

%%sep 1 1 500

